X: 39277
T: Táim In Arrears
R: slip jig
M: 9/8
K: Gmajor
|:D2G GAG FGA|B3 GAB c2d|DGG GAG FGA|BF/G/B cAF G2A:|
|:df/g/d cAG FGA|df/g/d cAB c3|df/g/d cAG FGA|B3 cAF G3:|

